_assets/dist/icon-plus.4a2bda01.svg

<svg height="20.424" viewBox="0 0 20.424 20.424" width="20.424" xmlns="http://www.w3.org/2000/svg"><path d="m22.356 9.587h-7.021v-7.021a.638.638 0 0 0 -.638-.638h-3.829a.638.638 0 0 0 -.638.638v7.021h-7.021a.638.638 0 0 0 -.638.638v3.829a.638.638 0 0 0 .638.638h7.021v7.021a.638.638 0 0 0 .638.638h3.832a.638.638 0 0 0 .638-.638v-7.02h7.021a.638.638 0 0 0 .638-.638v-3.83a.638.638 0 0 0 -.641-.638z" transform="translate(-2.571 -1.928)"/></svg>

<svg xmlns="http://www.w3.org/2000/svg" width="20.424" height="20.424" viewBox="0 0 20.424 20.424">
  <path id="Icon_metro-plus" data-name="Icon metro-plus" d="M22.356,9.587H15.335V2.566a.638.638,0,0,0-.638-.638H10.868a.638.638,0,0,0-.638.638V9.587H3.209a.638.638,0,0,0-.638.638v3.829a.638.638,0,0,0,.638.638H10.23v7.021a.638.638,0,0,0,.638.638H14.7a.638.638,0,0,0,.638-.638V14.693h7.021a.638.638,0,0,0,.638-.638V10.225A.638.638,0,0,0,22.356,9.587Z" transform="translate(-2.571 -1.928)"></path>
</svg>
